X: 859
T:Rowan Tree, The
S:Wendy Carle Taylor at the Bonnie Strathearn concert, Sept 2012
Z:https://nigelgatherer.com/
L:1/8
M:2/4
K:A
A,/B,/ | C>C CB, | C<E EA | F>E FA | FE- E
A,/B,/ | C>C CB, | C<E F>E | EC B,>C | A,3  ||
E | EA A>G | GF FA | E>E F/E/D/C/ | C2 B,
A,/B,/ | C>C CB, | C<E F>E | EC B,>A, | A,3  ||
A,/B,/ | C3 B, | A,2 z ||

